symbols/web/signal_wifi_statusbar_not_connected/materialsymbolsrounded/signal_wifi_statusbar_not_connected_wght700gradN25_20px.svg

<svg xmlns="http://www.w3.org/2000/svg" height="20" width="20"><path d="M10 18.188q-.271 0-.531-.115-.261-.115-.469-.365L1.104 8.542q-.375-.438-.344-.99.032-.552.448-.906 1.813-1.625 4.073-2.552Q7.542 3.167 10 3.167t4.719.927q2.26.927 4.093 2.552.417.354.448.802.032.448-.135.74l-.042.041q-.562-.562-1.416-.948-.855-.385-1.813-.385-1.708 0-2.896 1.177-1.187 1.177-1.187 2.865 0 1.145.541 2.083.542.937 1.459 1.458L11 17.708q-.208.25-.458.365-.25.115-.542.115Zm5.917-3.876q-.334 0-.573-.229-.24-.229-.198-.562.104-.438.333-.823.229-.386.667-.844.416-.396.552-.625.135-.229.135-.479 0-.354-.218-.542-.219-.187-.573-.187-.292 0-.521.114-.229.115-.375.282-.25.271-.531.364-.282.094-.532-.01-.312-.125-.427-.417-.114-.292.052-.542.313-.541.927-.906.615-.364 1.386-.364 1.041 0 1.771.593.729.594.729 1.657 0 .437-.25.833-.25.396-.917 1.063-.208.208-.333.437-.125.229-.209.417-.104.354-.343.562-.24.208-.552.208Zm-.021 2.896q-.417 0-.708-.27-.292-.271-.292-.709 0-.417.292-.708.291-.292.708-.292.437 0 .708.292.271.291.271.708 0 .438-.271.709-.271.27-.708.27Z"/></svg>

<svg xmlns="http://www.w3.org/2000/svg" height="20" width="20"><path d="M10 18.188Q9.729 18.188 9.469 18.073Q9.208 17.958 9 17.708L1.104 8.542Q0.729 8.104 0.76 7.552Q0.792 7 1.208 6.646Q3.021 5.021 5.281 4.094Q7.542 3.167 10 3.167Q12.458 3.167 14.719 4.094Q16.979 5.021 18.812 6.646Q19.229 7 19.26 7.448Q19.292 7.896 19.125 8.188L19.083 8.229Q18.521 7.667 17.667 7.281Q16.812 6.896 15.854 6.896Q14.146 6.896 12.958 8.073Q11.771 9.25 11.771 10.938Q11.771 12.083 12.312 13.021Q12.854 13.958 13.771 14.479L11 17.708Q10.792 17.958 10.542 18.073Q10.292 18.188 10 18.188ZM15.917 14.312Q15.583 14.312 15.344 14.083Q15.104 13.854 15.146 13.521Q15.25 13.083 15.479 12.698Q15.708 12.312 16.146 11.854Q16.562 11.458 16.698 11.229Q16.833 11 16.833 10.75Q16.833 10.396 16.615 10.208Q16.396 10.021 16.042 10.021Q15.75 10.021 15.521 10.135Q15.292 10.25 15.146 10.417Q14.896 10.688 14.615 10.781Q14.333 10.875 14.083 10.771Q13.771 10.646 13.656 10.354Q13.542 10.062 13.708 9.812Q14.021 9.271 14.635 8.906Q15.25 8.542 16.021 8.542Q17.062 8.542 17.792 9.135Q18.521 9.729 18.521 10.792Q18.521 11.229 18.271 11.625Q18.021 12.021 17.354 12.688Q17.146 12.896 17.021 13.125Q16.896 13.354 16.812 13.542Q16.708 13.896 16.469 14.104Q16.229 14.312 15.917 14.312ZM15.896 17.208Q15.479 17.208 15.188 16.938Q14.896 16.667 14.896 16.229Q14.896 15.812 15.188 15.521Q15.479 15.229 15.896 15.229Q16.333 15.229 16.604 15.521Q16.875 15.812 16.875 16.229Q16.875 16.667 16.604 16.938Q16.333 17.208 15.896 17.208Z"/></svg>
